source/img/fb.svg

<svg width="15" height="29" viewBox="0 0 15 29" fill="none" xmlns="http://www.w3.org/2000/svg">
<path fill-rule="evenodd" clip-rule="evenodd" d="M5.95934 2.36429C7.14824 0.990331 8.77928 0.199707 10.5 0.199707H14C14.3038 0.199707 14.55 0.44595 14.55 0.749707V6.14272C14.55 6.44648 14.3038 6.69272 14 6.69272H10.5C10.3643 6.69272 10.2148 6.75439 10.091 6.89751C9.96497 7.04313 9.88337 7.25563 9.88337 7.49098V10.9857H14C14.1663 10.9857 14.3237 11.061 14.4281 11.1904C14.5325 11.3198 14.5728 11.4895 14.5376 11.652L13.3709 17.045C13.3162 17.2981 13.0923 17.4788 12.8334 17.4788H9.88337V27.7148C9.88337 28.0185 9.63712 28.2648 9.33337 28.2648H4.6667C4.36294 28.2648 4.1167 28.0185 4.1167 27.7148V17.4788H1.1667C0.862943 17.4788 0.616699 17.2325 0.616699 16.9288V11.5357C0.616699 11.232 0.862943 10.9857 1.1667 10.9857H4.1167V7.49098C4.1167 5.58085 4.77259 3.73575 5.95934 2.36429ZM10.5 1.29971C9.1266 1.29971 7.79017 1.92956 6.79115 3.08407C5.78997 4.24108 5.2167 5.82532 5.2167 7.49098V11.5357C5.2167 11.8395 4.97046 12.0857 4.6667 12.0857H1.7167V16.3788H4.6667C4.97046 16.3788 5.2167 16.625 5.2167 16.9288V27.1648H8.78337V16.9288C8.78337 16.625 9.02961 16.3788 9.33337 16.3788H12.3896L13.3183 12.0857H9.33337C9.02961 12.0857 8.78337 11.8395 8.78337 11.5357V7.49098C8.78337 7.01116 8.94759 6.5378 9.25917 6.17773C9.57291 5.81516 10.017 5.59272 10.5 5.59272H13.45V1.29971H10.5Z" fill="#666666"/>
</svg>

<svg width="15" height="29" fill="none" xmlns="http://www.w3.org/2000/svg"><path fill-rule="evenodd" clip-rule="evenodd" d="M6 2.4A6 6 0 0110.5.2H14c.3 0 .6.2.6.5v5.4c0 .3-.3.6-.6.6h-3.5c-.1 0-.3 0-.4.2a1 1 0 00-.2.6V11H14a.6.6 0 01.5.7L13.4 17c0 .3-.3.5-.6.5h-3v10.2c0 .3-.2.6-.5.6H4.7a.6.6 0 01-.6-.6V17.5h-3a.6.6 0 01-.5-.6v-5.4c0-.3.3-.5.6-.5h3V7.5c0-2 .6-3.8 1.8-5.1zm4.5-1.1a5 5 0 00-3.7 1.8 6.8 6.8 0 00-1.6 4.4v4c0 .3-.2.6-.5.6h-3v4.3h3c.3 0 .5.2.5.5v10.3h3.6V16.9c0-.3.2-.5.5-.5h3l1-4.3h-4a.5.5 0 01-.5-.6v-4c0-.5.1-1 .5-1.3.3-.4.7-.6 1.2-.6h3V1.3h-3z" fill="#666"/></svg>
